assets/html5.svg

<svg width="85" height="100" viewBox="0 0 85 100" fill="none" xmlns="http://www.w3.org/2000/svg">
<path d="M0.015625 0L7.68491 90L42.1215 100L76.546 90.0062L84.2273 0H0.015625Z" fill="#FF5722"/>
<path d="M67.5955 29.4316H42.1215H27.2341L28.1965 40.7379H42.1215H66.6331L63.7399 74.6379L42.1215 80.9066L42.1035 80.9129L20.4972 74.6379L18.9874 56.9066H29.574L30.362 66.1066L42.1095 69.4254L42.1215 69.4191L53.8811 66.1004L55.1082 51.7816H42.1215H18.5543L15.7031 18.4004H42.1215H68.5339L67.5955 29.4316Z" fill="#FAFAFA"/>
</svg>

<svg width="85" height="100" fill="none" xmlns="http://www.w3.org/2000/svg"><path d="m.016 0 7.669 90 34.436 10 34.425-9.994L84.227 0H.016Z" fill="#FF5722"/><path d="M67.596 29.432H27.233l.962 11.306h38.437l-2.893 33.9-21.619 6.269-.018.006-21.606-6.275-1.51-17.731h10.587l.788 9.2 11.747 3.318.012-.006L53.88 66.1l1.227-14.318H18.554L15.704 18.4h52.83l-.939 11.032Z" fill="#FAFAFA"/></svg>
